X: 223
T: The Twelve Pins
C:Charlie Lennon
R: reel
M: 4/4
L: 1/8
K:Gmaj
"G"dBB2 dBGB|"D"dAA2 dAFA|DEFG "C(Am)"ABcA|"D"defg af"C"ge|
"G"dBB2 dBGB|"D"dAA2 dAFA|DEFG "C(Am)"ABcA|"D"d2"C"cA "G"AGG2:|
"D"f3e defg|a2ge "C(Am)"cAAB|c2AB cBAB|"C"cedB cAA2|
"D"f3e defg|a2ge "C(Am)"cAAB|c2AB cBAB|"C"cedB "G"AGG2|
"D"f3e defg|a2ge "C(Am)"cAAB|c2AB "C"cdeg|"D"abag "C"edde|
"D"f3g a3g|f2ed "C(Am)"cAAB|c2AB cBAB|"C"cedB "G"AGG2||


